X:1
T:Frauenliebe und -leben, Op.42
T:Du Ring an meinem Finger
T:4. Du Ring an meinem Finger
T:Robert Schumann
T:Frauenliebe und Leben, Op.42
T:Adelbert von Chamisso
T:OpenScore (CC0) 
T:OpenScore (CC0) 
T:OpenScore (CC0) 
C:Robert Schumann
Z:Adelbert von Chamisso
Z:OpenScore (CC0)
%%score 1 { ( 2 4 5 ) | ( 3 6 ) }
L:1/8
Q:1/4=65
M:4/4
K:Eb
V:1 treble nm="Voice"
V:2 treble nm="Piano"
V:4 treble 
V:5 treble 
V:3 bass 
V:6 bass 
V:1
"^Innig"!p! G2 | G3 B E2 G2 | (C3 D) E2 (EF) | G2 G =A B3 A | _A6 (GF) | G2 G B E2 E G | %6
w: Du|Ring an mein- em|Fin- * ger, mein *|gol- de- nes Rin- ge-|lein, ich *|drü- cke dich fromm an die|
 (C3 D) E2 (EF) | G2 G =A B B d c | B3 =A B2 z B | B3 D (E2 F) G | A4 G2 z B | B2 D2 (E2 F) G | %12
w: Lip- * pen, dich *|fromm an die Lip- pen, an das|Her- ze mein. Ich|hatt' ihn aus- * ge-|träu- met, der|Kind- heit fried- * lich|
 A2 B2 E2 z E | E3 E c2 B B | B2 A4 G2 | F2 F F _G2 F E | B4 z2 (F^F) | G3 B E3 G | %18
w: schö- nen Traum, ich|fand al- lein mich, ver-|lo- ren im|ö- den, un- end- li- chen|Raum, Du *|Ring an mei- nem|
 (C3 D) E2 (EF) | G2 G =A B3 A | _A6 (GF) | G3 B E3 G | (C3 D) E2 (EF) | G2 G =A B2 d c | %24
w: Fin- * ger, da *|hast du mich erst be-|lehrt, hast *|mei- nem~ Blick er-|schlos- * sen des *|Le- bens un- end- li- chen,|
 B3 =A B2 z3/2"^Nach und nach rascher" c/ | %25
w: tie- fen Wert. Ich|
[Q:1/4=70]"^T" c3 =E[Q:1/4=75]"^T" G2 F[Q:1/4=80]"^T" c | (d3 ^F) G2[Q:1/4=90]"^T" e2 | %27
w: will ihm dien- en, ihm|le- * ben, ihm|
 e3[Q:1/4=100]"^T" e =e2 e2 |[Q:1/4=90]"^T""^dim." f6[Q:1/4=80]"^T" _e2 | %29
w: an- ge- hö- ren|ganz, hin|
[Q:1/4=65]"^T" (ed) c B e2 B B | c2 e e d2 =A A | %31
w: sel- * ber mich ge- ben und|fin- den ver- klärt mich, und|
[Q:1/4=60]"^T" B2"^ritard." d[Q:1/4=58]"^T" c B2 _A[Q:1/4=55]"^T" A | %32
w: fin- den ver- klärt mich in|
 (G2 B)[Q:1/4=50]"^T" A F2 (EF) | G3 B E2 G2 | (C3 D) E2 (EF) | G2 G =A B3 A | _A6 (GF) | %37
w: sei- * nem~ Glanz. Du *|Ring an mei- nem|Fin- * ger, mein *|gol- de- nes Rin- ge-|lein, ich *|
 G2 G B E2 E G | (C3 D) E2 F2 | G2 B B =A e d c | B3 D E2 z2 | z8 | z8 | z8 | z8 |] %45
w: drü- cke dich fromm an die|Lip- * pen, dich|fromm an die Lip- pen, an das|Her- ze mein!|||||
V:2
 z2 | (G3 B E3 G | C3 D E2) (EF | G2 G=A B2 A2 | _A6 GF) | (G3 B E3 G | C3 D E2) (EF | %7
 G3 =A B2 [Gd]c | B2 =A2 B2) z2 |!p! z2 z B, z2 z B, | (A4 G2) z2 | z2 z B, z2 z B, | %12
!<(! (A2 B2!<)!!>(! E4)!>)! | z2 z E z E2 E | z2 z E (!>!A2 G2) |!<(! F3 F!<)!!>(! (_G2 FE)!>)! | %16
!p! (B=Bc=G A=EF^F | G3) B E3 G | C3 D E2) (EF | G2 G=A B2 A2 | _A6 GF) | (G3 B E3 G | %22
 C3 D E2) EF | (G3 =A!>(! B2!>)! [Gd]c | B2 =A2 B2) z2 | [=EGc][EGc][EGc][EGc] [Fc][Fc][Fc][Fc] | %26
 [^Fcd][Fcd][Fcd][Fcd] [GBd][GBd][GBd][GBd] | [GBe][GBe][GBe][GBe] [Gc=e][Gce][Gce][Gce] | %28
"^dim." [Fcf][Fcf][Fcf][Fcf] [Gcf][Gcf][Gcf][Gc_e] | [FBe][FBd][FBc][FB] [EBe][EBe][EB][EB] | %30
 [Ec][Ec][Ee][Ee] [Dd][Dd][D=A][DA] | [DB][DB][EBd][E_Ac] [DGB][DGB][CFA][_CFA] | %32
 [B,EG][B,EG][=CGB][CFA] [DF] ([B,DF][B,E][B,DF]) | (G3 B E3 G | C3 D E2) (EF | G2 G=A B2 A2 | %36
 _A6 GF) | (G3 B E3 G | C3 D E2 F2) | G2 B2 [=A,_E=A]2 [=DA-=d][EAc] | (B3 D _E2) z (E- | %41
 e3 G A2 Bc) | (e3 G A2 Bc) | (e2 dc B3 c | B3 D _E2) z2 |] %45
V:3
 z2 |!p! [E,,E,]8 | E,,6 [E,,E,][D,,D,] | [C,,C,]2 [E,,E,]2 [D,,D,]4- | %4
 [D,,D,]2 [C,,C,]2 [_C,,_C,]2 [B,,,B,,-]2 | [E,,B,,]4 E,4 | E,,6 [E,,E,][D,,D,] | %7
 [C,,C,]2 [E,,E,]2 [D,,D,]2 [E,,E,]2 | [F,,F,]2 [F,,,F,,]2 [B,,,B,,]2 z2 | %9
 B,,D,F,[I:staff -1]B,[I:staff +1] B,,D,F,[I:staff -1]B, |[I:staff +1] F,2 B,,2 E,,2 z2 | %11
 (B,,D,F,[I:staff -1]B,)[I:staff +1] (B,,E,G,[I:staff -1]B,) |[I:staff +1] F,,2 G,,2 A,,4 | %13
 E,A,C[I:staff -1]E[I:staff +1] E,[I:staff -1]E[I:staff +1]E,[I:staff -1]E | %14
[I:staff +1] E,A,C[I:staff -1]E[I:staff +1] E,[I:staff -1]E[I:staff +1]E,[I:staff -1]E | %15
[I:staff +1] E,F,[I:staff -1]CE[I:staff +1] (E,2 F,_G,) | [B,,F,]2 (B,=B, C=G,A,_B,,) | [E,,E,]8 | %18
 E,,6 [E,,E,][D,,D,] | [C,,C,]2 [E,,E,]2 [D,,D,]4- | [D,,D,]2 [C,,C,]2 [_C,,_C,]2 [B,,,B,,-]2 | %21
 [E,,B,,]4 E,4 | E,,6 [E,,E,][D,,D,] | [C,,C,]2 [E,,E,]2 [D,,D,]2 [E,,E,]2 | %24
 [F,,F,]2 [F,,,F,,]2 [B,,,B,,]2 z2 | [B,C][B,C][B,C][B,C] [_A,C][A,C][A,C][A,C] | %26
 [=A,CD][A,CD][A,CD][A,CD] [B,D][B,D][B,_DE][B,DE] | %27
 [B,_DE][B,DE][B,DE][B,DE] [B,C=E][B,CE][B,CE][B,CE] | %28
 [=A,C_E][A,CE][A,CE][A,CE] [A,CE][A,CE][A,CE][A,CE] | %29
 [_A,B,E][A,B,D][A,B,C][A,B,] [G,B,][G,B,][G,B,][G,B,] | %30
 [G,=A,][G,A,][G,A,][G,A,] [^F,A,][F,A,][F,A,][F,A,] | G,"^ritard."G,C,C, D,D,D,D, | %32
 E,E,[A,,=E,][A,,F,] B,A,G,B,, | [E,,E,]8 | E,,6 [E,,E,][D,,D,] | [C,,C,]2 [E,,E,]2 [D,,D,]4- | %36
 [D,,D,]2 [C,,C,]2 [_C,,_C,]2 [B,,,B,,]2 | [E,,,E,,]3 [G,,,G,,] [A,,,A,,]2 [C,,C,]2 | %38
 [F,,F,]3 [=B,,,=B,,] [C,,C,]2 [D,,D,]2 | [E,,E,]2 [=E,,=E,]2!ped! [F,,F,]4!ped-up! | %40
 G,2 _A,B, E,2 z2 | E,G,B,[I:staff -1]E-[I:staff +1] E,A,C[I:staff -1]E- | %42
[I:staff +1] E,G,B,[I:staff -1]E[I:staff +1] E,A,C[I:staff -1]E | %43
!ped![I:staff +1] C,4 =D,2!ped-up! E,=A,, | G,=G, _A,2 G,2 z2 |] %45
V:4
 x2 | EB,ED CG,CB, | A,[I:staff +1]E,A,F,[I:staff -1] G,B,G,B, | ED C2 DGC^F | =B,=FCF _DF=DA, | %5
 EG,ED CG,CB, | A,[I:staff +1]E,A,F,[I:staff -1] G,B,G,B, | EDCF- FF =B,C | %8
 DFCF DB,[I:staff +1]F,D, | x8 |[I:staff -1] CEDF EB,[I:staff +1]G,E, | x8 | %12
[I:staff -1] _DFED DCB,A, | x8 | x8 | x4 z C3 | D2 z2 z2 D2 | EB,ED CG,CB, | %18
 A,[I:staff +1]E,A,F,[I:staff -1] G,B,G,B, | ED C2 DGC^F | =B,=FCF _DF=DA, | EG,ED CG,CB, | %22
 A,[I:staff +1]E,A,F,[I:staff -1] G,B,G,B, | EDCF- FF =B,C | DFCF DFDB, | x8 | x8 | x8 | x8 | x8 | %30
 x8 | x8 | x8 | EB,ED CG,CB, | A,[I:staff +1]E,A,F,[I:staff -1] G,B,G,B, | ED C2 DGC^F | %36
 =B,=FCF _DF=DA, | EG,ED C[I:staff +1]E,[I:staff -1]CB, | %38
 A,[I:staff +1]C,[I:staff -1]A,[I:staff +1]F, E,[I:staff -1]C_B,A, | G,_DCB, x4 | %40
 E=EFG _EB,[I:staff +1]G,E, |[I:staff -1] E3 x E3 x | E3 x E3 x | %43
[I:staff +1] =A,CE[I:staff -1]F- F^FGE- | E=E=FG _E2 x2 |] %45
V:5
 x2 | x8 | x8 | x8 | x8 | x8 | x8 | x4 B,2 x2 | x8 | x8 | x8 | x8 | x8 | x8 | x8 | x8 | x8 | x8 | %18
 x8 | x8 | x8 | x8 | x8 | x4 B,2 x2 | x8 | x8 | x8 | x8 | x8 | x8 | x8 | x8 | x8 | x8 | x8 | x8 | %36
 x8 | x8 | x8 | x8 | x8 | x8 | x8 | x8 | x8 |] %45
V:6
 x2 | x8 | x8 | x8 | x8 | x8 | x8 | x8 | x8 | (_A,,4 G,,4 | F,,2) B,,2 x4 | A,,4 G,,4 | x8 | %13
 (A,,4 A,,2 B,,2 | (C,4) C,2 B,,2 | A,,4 =A,,4) | x8 | x8 | x8 | x8 | x8 | x8 | x8 | x8 | x8 | x8 | %26
 x8 | x8 | x8 | x8 | x8 | x8 | x4 B,, B,,2 B,, | x8 | x8 | x8 | x8 | x8 | x8 | x8 | B,,4 x4 | %41
 _D,4 C,4 | _D,4 C,4 | x4 B,3 _G,- | B,,3 B,, E,2 x2 |] %45

